Obsidian-SemiLight/actions/22s/edit-select.svg

<svg viewBox="0 0 22 22" xmlns="http://www.w3.org/2000/svg"><path d="m6 3a1 1 0 0 0 -1 1 1 1 0 0 0 1 1 1 1 0 0 0 1-1 1 1 0 0 0 -1-1m1 3 .00586 13 3.894531-4.699219 6.099609-.300781z" fill="#4d4d4d"/></svg>

<svg xmlns="http://www.w3.org/2000/svg" viewBox="0 0 22 22">
  <defs id="defs3051">
    <style type="text/css" id="current-color-scheme">
      .ColorScheme-Text {
        color:#4d4d4d;
      }
      </style>
  </defs>
 <path 
    style="fill:currentColor;fill-opacity:1;stroke:none" 
	d="M6 3A1 1 0 0 0 5 4 1 1 0 0 0 6 5 1 1 0 0 0 7 4 1 1 0 0 0 6 3M7 6L7.00586 19 10.900391 14.300781 17 14 7 6"
    class="ColorScheme-Text"
    />  
</svg>
